!!!OTL: 's ist mir Alles Eins.
!!!OTL-incipit:IST MIR ALLES EINS
!!!ARE: Europa, Mitteleuropa, Deutschland
!!!SCT: F0043
!!!TXL: @@DE
!!!YEM: Copyright 1995, estate of Helmut Schaffrath.
**kern	**text
*ICvox	*
*clefG2	*
*M3/4	*
*k[f#]	*
*G:	*
{8.dd	1._'s_iſt
16cc	mir
=1	=1
(8b	Al-
8dd)	-les
4dd	Eins,
8.cc	's_iſt
16a	mir
=2	=2
(8g	Al-
8b/)	-les
4b/}	Eins,
{8a	ob
8g	ich
=3	=3
8f#L	Geld
8ccJ	.
4cc	hab'
8b/	o-
8a	-der
=4	=4
(4ee	keins
8dd)	.
8r}	.
{8.dd	's_iſt
16cc	mir
=5	=5
8b	Al-
8dd	-les
4dd	Eins,
8.cc	's_iſt
16a	mir
=6	=6
8g	Al-
8b/	-les
4b/}	Eins,
{8a	ob
8g	ich
=7	=7
(8f#/L	Geld
8eeJ)	.
4ee	hab'
8cc/	o-
8a	-der
=8	=8
4g	keins.
4r}	.
=||	=||
{8.b/	2._Wer
16g	ein
=9	=9
(8f#/L	Geld
8ccJ)	.
4cc/	hat,
8a	kann
8f#	ein
=10	=10
8g	Weibchen
8ee	.
4dd}	ha'n
{8b/	und
8g	wer
=11	=11
(8f#/L	keins
8ccJ)	.
4cc	hat,
8a	kann
8f#	von
=12	=12
8g	Glücke
8ee	.
4dd'}	ſa'n.
{8.dd	1._'s_iſt
16cc	mir
=13	=13
(8b	Al-
8dd)	-les
4dd	Eins,
8.cc	's_iſt
16a	mir
=14	=14
(8g	Al-
8b/)	-les
4b}	Eins,
{8a	ob
8g	ich
=15	=15
(8f#/L	Geld
8ccJ)	.
4cc	hab'
8b/	o-
8a	-der
=16	=16
(4ee	keins
8dd)	.
8r}	.
{8.dd	's_iſt
16cc	mir
=17	=17
8b	Al-
8dd	-les
4dd	Eins,
8.cc	's_iſt
16a	mir
=18	=18
8g	Al-
8b/	-les
4b/}	Eins,
{8a	ob
8g	ich
=19	=19
(8f#/L	Geld
8eeJ)	.
4ee/	hab'
8cc/	o-
8a	-der
=20	=20
4g	keins.
4r}	.
==	==
!!!AGN: Scherz - Lied
!!!GTL: Volkslieder
!!!ONB: ESAC (Essen Associative Code) Database: FINK
!!!AMT: simple triple
!!!AIN: vox
!!!EED: Helmut Schaffrath
!!!EEV: 1.0
!!@@COMMENT:"Fast ueberall werden neue Witzstrophen dazu gesetzt
!!und den gelegenheit angepasst"
!!@@END:
!!!source: Musikalischer Hausschatz der Deutschen. Eine Sammlung von über 1000 Liedern und Gesängen mit Singstimmen und Klavierbegleitung. Leipzig, Litterarisches Verlags-Haus.
!!!page: 24
!!!URL-scan: https://www.digitale-sammlungen.de/en/view/bsb11144622?page=32,33
!!!ENC: Anna Maria Matuszewska
!!!EEV: 2024/07/25
*-	*-
